X:18490
T:Waltz. CJF.231
M:3/4
L:1/8
Q:120
C: "by Herz"
S: C.J.Fox MS, 1829/33, Beverley,E.Yorks.
R:Waltz
O:England
A:East Yorkshire
B:Kidson Coll.Mitchell Lib.M1805
N:In the title line is "by Herz". - PJH.
Z:P J Headford 2000
K:G
"p"DC|(B,DEDGA|GBce)d2|(Fca).D.C.D|(B,Gd).B.G.D|!\
(B,DEDGA|GBce)d2|(Fca).d.e.f|g2z2:||:!
"mf"(gf)|(eg) A (age)|(df) .A (agf)|(eg) .A (age)|(b2a^g=gf)|!\
(eg) .A (age)|(df) .A (afd)|(^cegba>c)|(d=cA" D.C."FDC)||


